picto/tracks-8-fr-large.svg

<svg class="color-immutable" width="24" height="24" viewBox="0 0 24 24" fill="none" xmlns="http://www.w3.org/2000/svg"><path d="M0 22.5V1.5C0 0.675 0.675 0 1.5 0H22.5C23.325 0 24 0.675 24 1.5V22.5C24 23.325 23.325 24 22.5 24H1.5C0.675 24 0 23.325 0 22.5Z" fill="#2D327D"/><path d="M9.485 13.756C8.857 13.541 8.376 13.187 8.041 12.695C7.706 12.203 7.538 11.606 7.538 10.905C7.538 9.736 8.018 8.804 8.978 8.109C9.827 7.494 10.836 7.186 12.005 7.186C13.334 7.186 14.42 7.552 15.263 8.284C16.063 8.973 16.463 9.825 16.463 10.84C16.463 11.548 16.294 12.154 15.955 12.658C15.617 13.163 15.137 13.529 14.515 13.756C15.001 13.898 15.398 14.079 15.705 14.3C16.56 14.921 16.988 15.829 16.988 17.022C16.988 18.394 16.462 19.486 15.41 20.298C14.524 20.981 13.386 21.322 11.995 21.322C10.488 21.322 9.288 20.947 8.396 20.196C7.467 19.415 7.002 18.39 7.002 17.123C7.002 15.936 7.414 15.016 8.239 14.364C8.615 14.076 9.03 13.873 9.485 13.756ZM11.949 14.771C11.285 14.771 10.741 14.976 10.32 15.385C9.899 15.794 9.688 16.319 9.688 16.958C9.688 17.616 9.902 18.152 10.329 18.564C10.757 18.976 11.312 19.182 11.995 19.182C12.77 19.182 13.352 18.954 13.739 18.499C14.114 18.062 14.302 17.558 14.302 16.986C14.302 16.334 14.087 15.799 13.656 15.38C13.244 14.974 12.675 14.771 11.949 14.771ZM11.968 9.28C11.377 9.28 10.901 9.445 10.538 9.774C10.175 10.103 9.994 10.535 9.994 11.071C9.994 11.631 10.177 12.079 10.543 12.414C10.909 12.749 11.4 12.917 12.015 12.917C12.63 12.917 13.116 12.751 13.473 12.419C13.83 12.087 14.008 11.635 14.008 11.062C14.008 10.502 13.828 10.065 13.468 9.752C13.108 9.439 12.607 9.28 11.968 9.28Z" fill="white"/><path d="M5.036 3L4.288 5.249H3.73L2.993 3H3.507L4.013 4.684L4.527 3H5.036Z" fill="white"/><path d="M5.87399 3.523C6.11799 3.523 6.31699 3.604 6.47199 3.766C6.62499 3.926 6.70099 4.139 6.70099 4.406C6.70099 4.682 6.61899 4.902 6.45599 5.066C6.30399 5.218 6.10499 5.295 5.85999 5.295C5.59899 5.295 5.38999 5.21 5.23599 5.04C5.08799 4.877 5.01399 4.667 5.01399 4.409C5.01399 4.155 5.08599 3.948 5.22899 3.789C5.38899 3.612 5.60299 3.523 5.87399 3.523ZM5.85099 3.871C5.73299 3.871 5.63899 3.919 5.56999 4.014C5.49899 4.11 5.46299 4.242 5.46299 4.409C5.46299 4.582 5.49799 4.715 5.56799 4.807C5.63999 4.9 5.73799 4.947 5.86199 4.947C5.97799 4.947 6.06999 4.904 6.13699 4.819C6.21399 4.725 6.25199 4.588 6.25199 4.408C6.25199 4.24 6.21799 4.109 6.14999 4.016C6.07999 3.919 5.97999 3.871 5.85099 3.871Z" fill="white"/><path d="M7.44899 3V3.401H7.00299V3H7.44899ZM7.44899 3.572V5.249H7.00299V3.572H7.44899Z" fill="white"/><path d="M9.32099 4.726C9.29699 4.82 9.25499 4.909 9.19299 4.992C9.04499 5.194 8.83299 5.295 8.55599 5.295C8.30599 5.295 8.10499 5.216 7.95499 5.058C7.88099 4.981 7.82499 4.888 7.78599 4.78C7.74399 4.664 7.72299 4.543 7.72299 4.417C7.72299 4.173 7.79299 3.968 7.93399 3.802C8.09099 3.616 8.29399 3.524 8.54299 3.524C8.74399 3.524 8.91499 3.586 9.05699 3.71C9.15899 3.799 9.23199 3.909 9.27799 4.04C9.32399 4.171 9.34699 4.335 9.34699 4.533H8.17699C8.18099 4.615 8.19399 4.683 8.21499 4.738C8.27499 4.885 8.38999 4.958 8.55999 4.958C8.64299 4.958 8.71099 4.94 8.76299 4.903C8.81499 4.867 8.85799 4.808 8.89199 4.727H9.32099V4.726ZM8.89199 4.232C8.88399 4.151 8.86499 4.084 8.83599 4.031C8.80799 3.978 8.76699 3.937 8.71399 3.906C8.66099 3.875 8.60399 3.86 8.54099 3.86C8.44199 3.86 8.35999 3.893 8.29499 3.96C8.22999 4.026 8.19199 4.117 8.17999 4.232H8.89199Z" fill="white"/></svg>

<svg class="color-immutable" width="24" height="24" viewBox="0 0 24 24" fill="none" xmlns="http://www.w3.org/2000/svg"><g clip-path="url(#a)"><path d="M0 22.5v-21C0 .675.675 0 1.5 0h21c.825 0 1.5.675 1.5 1.5v21c0 .825-.675 1.5-1.5 1.5h-21C.675 24 0 23.325 0 22.5Z" fill="#2D327D"/><path d="M9.485 13.756c-.628-.215-1.109-.569-1.444-1.061-.335-.492-.503-1.089-.503-1.79 0-1.169.48-2.101 1.44-2.796.849-.615 1.858-.923 3.027-.923 1.329 0 2.415.366 3.258 1.098.8.689 1.2 1.541 1.2 2.556 0 .708-.169 1.314-.508 1.818-.338.505-.818.871-1.44 1.098.486.142.883.323 1.19.544.855.621 1.283 1.529 1.283 2.722 0 1.372-.526 2.464-1.578 3.276-.886.683-2.024 1.024-3.415 1.024-1.507 0-2.707-.375-3.599-1.126-.929-.781-1.394-1.806-1.394-3.073 0-1.187.412-2.107 1.237-2.759a3.438 3.438 0 0 1 1.246-.608Zm2.464 1.015c-.664 0-1.208.205-1.629.614-.421.409-.632.934-.632 1.573 0 .658.214 1.194.641 1.606.428.412.983.618 1.666.618.775 0 1.357-.228 1.744-.683.375-.437.563-.941.563-1.513 0-.652-.215-1.187-.646-1.606-.412-.406-.981-.609-1.707-.609Zm.019-5.491c-.591 0-1.067.165-1.43.494-.363.329-.544.761-.544 1.297 0 .56.183 1.008.549 1.343.366.335.857.503 1.472.503s1.101-.166 1.458-.498c.357-.332.535-.784.535-1.357 0-.56-.18-.997-.54-1.31-.36-.313-.861-.472-1.5-.472ZM5.036 3l-.748 2.249H3.73L2.993 3h.514l.506 1.684L4.527 3h.509ZM5.874 3.523a.79.79 0 0 1 .598.243c.153.16.229.373.229.64 0 .276-.082.496-.245.66a.807.807 0 0 1-.596.229c-.261 0-.47-.085-.624-.255-.148-.163-.222-.373-.222-.631 0-.254.072-.461.215-.62.16-.177.374-.266.645-.266Zm-.023.348a.33.33 0 0 0-.281.143.652.652 0 0 0-.107.395c0 .173.035.306.105.398.072.093.17.14.294.14a.332.332 0 0 0 .275-.128c.077-.094.115-.231.115-.411 0-.168-.034-.299-.102-.392a.347.347 0 0 0-.299-.145ZM7.449 3v.401h-.446V3h.446Zm0 .572v1.677h-.446V3.572h.446ZM9.321 4.726a.752.752 0 0 1-.128.266c-.148.202-.36.303-.637.303-.25 0-.451-.079-.601-.237a.775.775 0 0 1-.169-.278 1.058 1.058 0 0 1-.063-.363c0-.244.07-.449.211-.615a.76.76 0 0 1 .609-.278.754.754 0 0 1 .735.516c.046.131.069.295.069.493h-1.17c.004.082.017.15.038.205.06.147.175.22.345.22a.343.343 0 0 0 .203-.055.39.39 0 0 0 .129-.176h.429v-.001Zm-.429-.494a.525.525 0 0 0-.056-.201.334.334 0 0 0-.295-.171.328.328 0 0 0-.246.1.44.44 0 0 0-.115.272h.712Z" fill="#fff"/></g><defs><clipPath id="a"><path fill="#fff" d="M0 0h24v24H0z"/></clipPath></defs></svg>
